X: 1
T: Gan Ainm
M: 4/4
L: 1/8
R: reel
K: Emin
~G2BG E2AG|FEFA dAFD|~G2BG EFGA|BGAF GEEF|
~G2BG E2AG|FEFA dAFD|~G2BG EFGA|BGAF GEEf|
e~B3 efge|f~a3 bgaf|e~B3 efge|fagf ~e3f|
e~B3 efge|f~a3 bgaf|e~B3 cBAB|d^cde fdAF|
